X:1
T:Title
%%score { ( 1 3 ) | ( 2 4 ) }
L:1/8
M:4/4
K:Bb
V:1 treble nm="Grand Piano"
V:3 treble 
V:2 bass 
V:4 bass 
V:1
 z4 z2[Q:1/4=94] [B,D]>[CE] | [DF]>[DF] [DF]>[DF] [DF]>[B,D] [DF]>[DF] | G>F G>B F2 D>[CE] | %3
 [DF]>[DF] [DF]>[DF] [EG]>[DF] [DF]>[DF] |[M:9/8] [FB]>[EA][DB]- [DB]/[Fd]/ c2- cF>F | %5
[M:4/4] [DB]>[DB] [DB]>[DB] [Ec]>[DB] [DB]>[Ec] | [Fd]>[DB] G>B F2 [FB]>[FA] | %7
 [EG]2 [Ge]2 d<d c>A |[M:3/4] [DB]6 |[M:1/4] B>c |[M:4/4] d2 B2 G<B B>B | %11
 [Ge]>[Ge] [Ge]>[Ge] [Fd]2 [FB]>[FA] | [EG]2 [EB]2 [EG]<[DF] [B,D]>[CE] | z4 c2 z2 | %14
 [Fd]2 [Fd]2 f<d [Fc]>[FB] | [EG]<[GB] [GB]>[EG] [DF]2 B>c | d2 [Ge]2 d<d c>A |[M:3/4] B6 |] %18
V:2
 z4 z2 [B,,F,]>[B,,F,] | [B,,B,]>[B,,B,] [B,,B,]>[B,,B,] [B,,B,]>[B,,F,] [B,,B,]>[B,,B,] | %2
 [E,B,E]>[E,B,D] [E,B,E]>[G,B,E] [B,D]2 [B,,F,B,]>[B,,F,] | %3
 [B,,B,]>[B,,B,] [B,,B,]>[B,,B,] [B,,B,]>[B,,B,] [B,,B,]>[B,,B,] | %4
[M:9/8] [D,F,]>[C,F,][B,,F,]- [B,,F,]/[B,,B,]/ [F,A,F]2- [F,A,F][F,A,E]>[F,A,E] | %5
[M:4/4] [B,,B,]>[B,,F,] [B,,F,]>[B,,F,] [B,,F,]>[B,,F,] [B,,F,]>[B,,F,] | %6
 [B,,B,]>[B,,B,] [E,B,E]>[G,B,E] [B,D]2 [D,B,]>[D,B,] | %7
 [E,B,]2 [E,B,]2 [F,B,F]<[F,A,F] [F,A,E]>[F,E] |[M:3/4] [B,,F,]6 |[M:1/4][K:treble] [B,D]>[B,E] | %10
[M:4/4] [B,F]2 [B,DF]2 [B,E]<[B,EG] [B,F_A]>[B,FA] | %11
 [E,E]>[F,B,] [G,B,]>[E,B,] [B,,B,]2 [D,B,]>[D,B,] | %12
 [E,B,]2 [E,G,]2 [B,,B,]<[B,,B,] [B,,F,]>[B,,F,] | %13
 [B,,B,]>[B,,B,] [G,B,D]>[G,B,D] [F,A,F]2 [D,B,]>[C,B,] | %14
 [B,,B,]2 [B,,B,]2[K:treble] [B,DF]<[B,F][K:bass] [D,B,]>[D,B,] | %15
 [E,B,]<[E,B,] [E,B,]>[E,B,] [B,,B,]2[K:treble] [B,D]>[B,E] | %16
 [B,F]2[K:bass] [E,B,]2 [F,B,F]<[F,B,F] [F,A,E]>[F,E] |[M:3/4] F,2 G,>G, F,2 |] %18
V:3
 x8 | x8 | x8 | x8 |[M:9/8] x9 |[M:4/4] x8 | x8 | x8 |[M:3/4] x6 |[M:1/4] x2 |[M:4/4] x8 | x8 | %12
 x8 | [DF]>[DB] B>B z z/ E,/ [FB]>[Fc] | x8 | x8 | x8 |[M:3/4] D2 E>E D2 |] %18
V:4
 x8 | x8 | x8 | x8 |[M:9/8] x9 |[M:4/4] x8 | x8 | x8 |[M:3/4] x6 |[M:1/4][K:treble] x2 | %10
[M:4/4] x8 | x8 | x8 | x8 | x4[K:treble] x2[K:bass] x2 | x6[K:treble] x2 | x2[K:bass] x6 | %17
[M:3/4] B,,6 |] %18

